sharp/svg/camera_roll.svg

<svg xmlns="http://www.w3.org/2000/svg" width="24" height="24"><path fill="none" d="M0 0h24v24H0V0z"/><g fill="currentColor"><path d="M14 5V3h-3V1H5v2H2v19h12v-2h8V5h-8zm-2 13h-2v-2h2v2zm0-9h-2V7h2v2zm4 9h-2v-2h2v2zm0-9h-2V7h2v2zm4 9h-2v-2h2v2zm0-9h-2V7h2v2z"/></g></svg>

<?xml version="1.0" encoding="utf-8"?>
<!-- Generator: Adobe Illustrator 19.1.0, SVG Export Plug-In . SVG Version: 6.00 Build 0)  -->
<svg version="1.1" xmlns="http://www.w3.org/2000/svg" xmlns:xlink="http://www.w3.org/1999/xlink" x="0px" y="0px" width="24px"
	 height="24px" viewBox="0 0 24 24" enable-background="new 0 0 24 24" xml:space="preserve">
<g id="Bounding_Boxes">
	<g id="ui_x5F_spec_x5F_header_copy_3">
	</g>
	<path fill="none" d="M0,0h24v24H0V0z"/>
</g>
<g id="Sharp" fill="currentColor">
	<g id="ui_x5F_spec_x5F_header_copy_2">
	</g>
	<path d="M14,5V3h-3V1H5v2H2v19h12v-2h8V5H14z M12,18h-2v-2h2V18z M12,9h-2V7h2V9z M16,18h-2v-2h2V18z M16,9h-2V7h2V9z M20,18h-2v-2
		h2V18z M20,9h-2V7h2V9z"/>
</g>
</svg>
